X: 1
T: The Nonsuch
O: Dorset, England, ca. 1820
B: "Benjamin Rose His Book", 1820-1822 p.20 #2
S: http://www.timlaycock.co.uk/page20/page20.html
R: jig
Z: 2012 John Chambers <jc:trillian.mit.edu>
M: 6/8
L: 1/8
K: G
B/c/ |\
dgb d2c | G2G G2B | ABc E2G | FGA D2(B/c/) |\
d2B g2B | G2G G2B | ABc E2F | G3 G2 :|
|:  F/G/ |\
A2F DFA | B2G G2(A/B/) | c2A FAc | d2B B2d |\
e2c a2c | d2B g2B | ABc E2F | G3 G2 :|
